;FLAVOR:RepRap
;TIME:761
;Filament used: 80.0649m
;Layer height: 1.5
;MINX:162.919
;MINY:133.064
;MINZ:1.5
;MAXX:257.081
;MAXY:227.014
;MAXZ:185.321
;Generated with Cura_SteamEngine 4.8.0
T0
M109 S0
M82 ;absolute extrusion mode
G28 ;Home all
M83 ;relative extrusion mode
;LAYER_COUNT:123
;LAYER:0
M107
G0 F4800 X173.768 Y149.856 Z1.5
;TYPE:SKIRT
G1 F2400 X174.11 Y149.464 E1.62212
G1 X175.939 Y147.444 E8.49693
G1 X176.446 Y146.899 E2.32102
G1 X176.939 Y146.404 E2.1784
G1 X177.353 Y146.017 E1.76709
G1 X179.319 Y144.236 E8.27166
G1 X179.846 Y143.771 E2.19149
G1 X180.282 Y143.406 E1.77301
G1 X180.761 Y143.034 E1.89111
G1 X182.986 Y141.383 E8.63923
G1 X183.565 Y140.967 E2.22307
G1 X184.049 Y140.639 E1.82308
G1 X184.689 Y140.241 E2.35002
G1 X186.836 Y138.956 E7.8021
G1 X187.295 Y138.688 E1.65733
G1 X187.908 Y138.357 E2.17227
G1 X188.956 Y137.835 E3.65074
G1 X189.278 Y137.681 E1.11296
G1 X189.85 Y137.42 E1.96048
G1 X190.7 Y137.077 E2.85807
G1 X191.576 Y136.809 E2.85646
G1 X192.472 Y136.618 E2.85662
G1 X193.282 Y136.514 E2.54642
G1 X194.562 Y136.402 E4.00647
G1 X194.945 Y136.374 E1.19743
G1 X197.452 Y136.117 E7.85814
G1 X199.968 Y135.788 E7.91202
G1 X202.451 Y135.39 E7.84117
G1 X204.969 Y134.915 E7.98995
G1 X207.435 Y134.376 E7.87086
G1 X210.395 Y133.633 E9.51602
G1 X211.178 Y133.423 E2.52779
G1 X212.073 Y133.224 E2.85889
G1 X212.981 Y133.104 E2.85589
G1 X213.897 Y133.064 E2.85894
G1 X214.812 Y133.104 E2.85582
G1 X215.296 Y133.157 E1.5182
G1 X216.142 Y133.272 E2.6622
G1 X218.084 Y133.561 E6.12211
G1 X218.637 Y133.65 E1.74652
G1 X219.318 Y133.783 E2.16357
G1 X220.49 Y134.052 E3.74948
G1 X220.694 Y134.101 E0.65419
G1 X222.68 Y134.6 E6.3851
G1 X223.128 Y134.719 E1.44537
G1 X223.76 Y134.908 E2.0569
G1 X224.942 Y135.303 E3.88599
G1 X225.149 Y135.375 E0.68338
G1 X227.019 Y136.045 E6.19388
G1 X227.513 Y136.23 E1.64483
G1 X228.12 Y136.479 E2.04577
G1 X229.235 Y136.978 E3.80901
G1 X229.436 Y137.071 E0.69058
G1 X231.197 Y137.904 E6.07438
G1 X231.867 Y138.232 E2.32606
G1 X232.441 Y138.536 E2.02533
G1 X232.957 Y138.833 E1.85644
G1 X235.252 Y140.208 E8.3422
G1 X235.855 Y140.58 E2.20925
G1 X236.398 Y140.939 E2.02974
G1 X236.895 Y141.293 E1.90264
G1 X239 Y142.856 E8.17523
G1 X239.582 Y143.3 E2.28255
G1 X240.049 Y143.678 E1.87341
G1 X240.469 Y144.043 E1.73506
G1 X242.489 Y145.872 E8.49693
G1 X243.034 Y146.379 E2.32102
G1 X243.529 Y146.872 E2.1784
G1 X243.916 Y147.286 E1.76709
G1 X245.694 Y149.248 E8.25614
G1 X246.155 Y149.77 E2.17154
G1 X246.522 Y150.209 E1.78419
G1 X246.901 Y150.696 E1.9242
G1 X248.53 Y152.892 E8.52573
G1 X248.955 Y153.481 E2.26478
G1 X249.302 Y153.994 E1.93118
G1 X249.567 Y154.417 E1.55643
G1 X250.977 Y156.769 E8.55075
G1 X251.245 Y157.228 E1.65733
G1 X251.575 Y157.84 E2.16805
G1 X252.127 Y158.948 E3.85991
G1 X252.222 Y159.143 E0.67636
G1 X253.066 Y160.932 E6.16797
G1 X253.373 Y161.608 E2.31505
G1 X253.593 Y162.129 E1.76345
G1 X253.807 Y162.688 E1.8664
G1 X254.713 Y165.221 E8.38827
G1 X254.886 Y165.726 E1.6645
G1 X255.083 Y166.365 E2.08503
G1 X255.408 Y167.556 E3.84949
G1 X255.463 Y167.769 E0.68595
G1 X255.947 Y169.703 E6.21645
G1 X256.062 Y170.189 E1.55726
G1 X256.196 Y170.851 E2.10607
G1 X256.405 Y172.083 E3.89643
G1 X256.439 Y172.299 E0.68181
G1 X256.726 Y174.237 E6.10886
G1 X256.794 Y174.739 E1.5796
G1 X256.864 Y175.419 E2.13154
G1 X256.952 Y176.684 E3.95398
G1 X256.964 Y176.895 E0.65899
G1 X257.057 Y178.796 E5.93467
G1 X257.078 Y179.376 E1.8097
G1 X257.081 Y180.05 E2.10165
G1 X257.066 Y180.585 E1.66886
G1 X257 Y181.499 E2.8574
G1 X256.855 Y182.404 E2.85791
G1 X256.632 Y183.293 E2.85791
G1 X256.344 Y184.128 E2.75416
G1 X255.89 Y185.284 E3.87259
G1 X254.983 Y187.693 E8.02636
G1 X254.148 Y190.118 E7.99719
G1 X253.405 Y192.49 E7.75058
G1 X252.714 Y194.941 E7.94047
G1 X252.086 Y197.432 E8.01032
G1 X251.546 Y199.854 E7.73756
G1 X251.461 Y200.298 E1.40959
G1 X251.206 Y201.532 E3.92908
G1 X250.981 Y202.42 E2.85641
G1 X250.68 Y203.286 E2.85877
G1 X250.305 Y204.122 E2.85701
G1 X250.032 Y204.63 E1.79826
G1 X249.661 Y205.277 E2.32557
G1 X249.435 Y205.653 E1.36791
G1 X249.065 Y206.21 E2.08507
G1 X248.408 Y207.135 E3.53778
G1 X248.283 Y207.308 E0.66552
G1 X247.052 Y208.966 E6.43903
G1 X246.629 Y209.52 E2.17342
G1 X246.251 Y209.987 E1.87341
G1 X245.88 Y210.414 E1.7638
G1 X244.068 Y212.414 E8.41513
G1 X243.563 Y212.958 E2.31449
G1 X243.065 Y213.459 E2.20266
G1 X242.647 Y213.85 E1.78472
G1 X240.682 Y215.631 E8.26935
G1 X240.163 Y216.089 E2.15834
G1 X239.719 Y216.459 E1.80215
G1 X239.237 Y216.834 E1.90423
G1 X237.156 Y218.379 E8.08168
G1 X236.456 Y218.884 E2.69142
G1 X235.968 Y219.215 E1.83866
G1 X235.311 Y219.625 E2.41479
G1 X233.164 Y220.91 E7.8021
G1 X232.705 Y221.178 E1.65733
G1 X232.093 Y221.508 E2.16805
G1 X230.985 Y222.06 E3.85991
G1 X230.79 Y222.155 E0.67636
G1 X229.001 Y222.999 E6.16797
G1 X228.325 Y223.306 E2.31505
G1 X227.804 Y223.526 E1.76345
G1 X227.245 Y223.74 E1.8664
G1 X224.679 Y224.658 E8.49776
G1 X224.199 Y224.822 E1.58166
G1 X223.568 Y225.016 E2.05844
G1 X222.377 Y225.341 E3.84949
G1 X222.164 Y225.396 E0.68595
G1 X220.23 Y225.88 E6.21645
G1 X219.744 Y225.995 E1.55726
G1 X219.082 Y226.129 E2.10607
G1 X217.85 Y226.338 E3.89643
G1 X217.634 Y226.372 E0.68181
G1 X215.691 Y226.66 E6.12473
G1 X215.187 Y226.728 E1.58578
G1 X214.513 Y226.797 E2.11261
G1 X213.25 Y226.885 E3.94776
G1 X211.233 Y226.986 E6.29716
G1 X210.552 Y227.011 E2.12488
G1 X209.885 Y227.014 E2.07982
G1 X208.675 Y226.98 E3.77444
G1 X208.454 Y226.971 E0.68968
G1 X206.464 Y226.872 E6.21277
G1 X205.763 Y226.828 E2.19012
G1 X205.138 Y226.77 E1.95721
G1 X204.551 Y226.695 E1.84523
G1 X201.958 Y226.31 E8.17397
G1 X201.36 Y226.214 E1.88852
G1 X200.678 Y226.082 E2.16604
G1 X199.535 Y225.82 E3.65646
G1 X199.331 Y225.771 E0.65419
G1 X197.32 Y225.266 E6.46527
G1 X196.872 Y225.147 E1.44537
G1 X196.24 Y224.958 E2.0569
G1 X195.058 Y224.563 E3.88599
G1 X194.851 Y224.491 E0.68338
G1 X193.128 Y223.875 E5.70558
G1 X192.508 Y223.644 E2.06307
G1 X191.881 Y223.387 E2.11293
G1 X190.718 Y222.865 E3.97493
G1 X190.184 Y222.615 E1.83853
G1 X189.439 Y222.25 E2.58683
G1 X188.635 Y221.811 E2.85635
G1 X187.872 Y221.303 E2.85822
G1 X187.157 Y220.731 E2.85511
G1 X186.389 Y219.98 E3.34939
G1 X186.294 Y219.884 E0.42113
G1 X184.55 Y218.053 E7.88469
G1 X182.748 Y216.264 E7.91769
G1 X180.889 Y214.52 E7.94814
G1 X179.005 Y212.851 E7.84818
G1 X177.055 Y211.219 E7.92886
G1 X175.054 Y209.638 E7.9519
G1 X173.74 Y208.648 E5.12997
G1 X172.975 Y208.083 E2.96543
G1 X172.262 Y207.507 E2.85807
G1 X171.603 Y206.871 E2.85574
G1 X171.001 Y206.18 E2.85762
G1 X170.314 Y205.209 E3.70889
G1 X169.755 Y204.316 E3.28506
G1 X169.644 Y204.135 E0.66206
G1 X168.963 Y202.995 E4.14063
G1 X168.729 Y202.59 E1.45848
G1 X168.426 Y202.026 E1.99635
G1 X167.884 Y200.94 E3.7846
G1 X167.789 Y200.745 E0.67636
G1 X166.931 Y198.93 E6.25992
G1 X166.623 Y198.252 E2.32201
G1 X166.385 Y197.685 E1.91742
G1 X166.176 Y197.134 E1.83754
G1 X165.325 Y194.757 E7.8725
G1 X165.109 Y194.125 E2.08258
G1 X164.917 Y193.5 E2.03872
G1 X164.584 Y192.279 E3.9463
G1 X164.528 Y192.064 E0.69277
G1 X164.053 Y190.163 E6.10982
G1 X163.938 Y189.677 E1.55726
G1 X163.804 Y189.015 E2.10607
G1 X163.595 Y187.783 E3.89643
G1 X163.561 Y187.567 E0.68181
G1 X163.273 Y185.624 E6.12473
G1 X163.205 Y185.12 E1.58578
G1 X163.136 Y184.446 E2.11261
G1 X163.048 Y183.183 E3.94776
G1 X162.947 Y181.166 E6.29716
G1 X162.922 Y180.487 E2.11865
G1 X162.919 Y179.815 E2.09541
G1 X162.954 Y178.585 E3.83686
G1 X162.963 Y178.368 E0.67722
G1 X163.061 Y176.392 E6.16901
G1 X163.106 Y175.681 E2.22143
G1 X163.165 Y175.054 E1.96371
G1 X163.238 Y174.484 E1.79186
G1 X163.623 Y171.891 E8.17397
G1 X163.719 Y171.293 E1.88852
G1 X163.851 Y170.611 E2.16604
G1 X164.113 Y169.468 E3.65646
G1 X164.162 Y169.264 E0.65419
G1 X164.667 Y167.253 E6.46527
G1 X164.786 Y166.805 E1.44537
G1 X164.975 Y166.173 E2.0569
G1 X165.37 Y164.991 E3.88599
G1 X165.442 Y164.784 E0.68338
G1 X166.11 Y162.918 E6.18004
G1 X166.294 Y162.426 E1.6379
G1 X166.545 Y161.814 E2.06256
G1 X167.045 Y160.697 E3.81598
G1 X167.139 Y160.494 E0.69755
G1 X167.984 Y158.711 E6.15239
G1 X168.303 Y158.06 E2.26051
G1 X168.603 Y157.492 E2.00296
G1 X168.902 Y156.972 E1.87037
G1 X170.279 Y154.673 E8.3561
G1 X170.656 Y154.064 E2.23336
G1 X171.003 Y153.54 E1.95968
G1 X171.36 Y153.039 E1.91822
G1 X172.917 Y150.942 E8.14405
G1 X173.367 Y150.351 E2.31621
G1 X173.768 Y149.856 E1.98639
;MESH:tinker.obj
G0 F4800 X183.653 Y158.318
G0 X181.729 Y161.048
G0 X181.646 Y160.993
;TYPE:WALL-OUTER
G1 F2400 X183.638 Y158.306 E10.42971
G1 X185.886 Y155.825 E10.43941
G1 X188.37 Y153.575 E10.45053
G1 X191.053 Y151.583 E10.41969
G1 X192.827 Y150.521 E6.44702
G1 X192.972 Y150.828 E1.05867
G1 X193.601 Y151.88 E3.82191
G1 X194.333 Y152.867 E3.83162
G1 X195.157 Y153.776 E3.82561
G1 X196.066 Y154.6 E3.82561
G1 X197.053 Y155.332 E3.83162
G1 X198.105 Y155.961 E3.82191
G1 X199.213 Y156.486 E3.82311
G1 X200.37 Y156.9 E3.83169
G1 X201.562 Y157.198 E3.83121
G1 X202.775 Y157.378 E3.82372
G1 X204.001 Y157.438 E3.82741
G1 X205.232 Y157.377 E3.84314
G1 X206.446 Y157.197 E3.8268
G1 X207.637 Y156.898 E3.82894
G1 X208.793 Y156.484 E3.82875
G1 X209.901 Y155.958 E3.82444
G1 X210.953 Y155.328 E3.82351
G1 X211.939 Y154.595 E3.83098
G1 X212.848 Y153.771 E3.82561
G1 X213.672 Y152.86 E3.83023
G1 X214.403 Y151.873 E3.82977
G1 X215.032 Y150.82 E3.82458
G1 X215.556 Y149.712 E3.82177
G1 X215.969 Y148.556 E3.8277
G1 X216.266 Y147.363 E3.83348
G1 X216.4 Y146.453 E2.8681
G1 X216.655 Y146.491 E0.80391
G1 X219.896 Y147.303 E10.41823
G1 X223.049 Y148.43 E10.44066
G1 X226.071 Y149.86 E10.42474
G1 X228.94 Y151.579 E10.42882
G1 X231.627 Y153.571 E10.42971
G1 X234.108 Y155.819 E10.43941
G1 X236.358 Y158.303 E10.45053
G1 X238.35 Y160.986 E10.41969
G1 X238.588 Y161.386 E1.45134
G1 X240.072 Y163.86 E8.99567
G1 X241.501 Y166.882 E10.42341
G1 X242.629 Y170.032 E10.4329
G1 X243.441 Y173.276 E10.42731
G1 X243.934 Y176.592 E10.45339
G1 X243.975 Y177.429 E2.61301
G1 X242.775 Y177.488 E3.74629
G1 X241.562 Y177.668 E3.82372
G1 X240.37 Y177.966 E3.83121
G1 X239.213 Y178.38 E3.83169
G1 X238.105 Y178.905 E3.82311
G1 X237.053 Y179.534 E3.82191
G1 X236.066 Y180.266 E3.83162
G1 X235.157 Y181.09 E3.82561
G1 X234.333 Y181.999 E3.82561
G1 X233.601 Y182.986 E3.83162
G1 X232.972 Y184.038 E3.82191
G1 X232.446 Y185.147 E3.82726
G1 X232.031 Y186.31 E3.85036
G1 X231.734 Y187.502 E3.83046
G1 X231.555 Y188.715 E3.82326
G1 X231.495 Y189.94 E3.8243
G1 X231.556 Y191.165 E3.82445
G1 X231.736 Y192.379 E3.8268
G1 X232.035 Y193.571 E3.83197
G1 X232.449 Y194.726 E3.82582
G1 X232.976 Y195.835 E3.8286
G1 X233.606 Y196.886 E3.82083
G1 X234.338 Y197.873 E3.83162
G1 X235.163 Y198.781 E3.8254
G1 X236.072 Y199.605 E3.82561
G1 X237.061 Y200.336 E3.83478
G1 X237.205 Y200.422 E0.52299
G1 X236.362 Y201.56 E4.41598
G1 X234.114 Y204.041 E10.43941
G1 X231.63 Y206.291 E10.45053
G1 X228.947 Y208.283 E10.41969
G1 X228.547 Y208.521 E1.45134
G1 X226.073 Y210.005 E8.99567
G1 X223.051 Y211.434 E10.42341
G1 X219.901 Y212.562 E10.4329
G1 X216.657 Y213.374 E10.42731
G1 X213.341 Y213.867 E10.45339
G1 X210 Y214.031 E10.43024
G1 X206.66 Y213.867 E10.42713
G1 X203.346 Y213.375 E10.44677
G1 X200.104 Y212.563 E10.42126
G1 X197.575 Y211.659 E8.37442
G1 X197.967 Y210.563 E3.62949
G1 X198.265 Y209.371 E3.83121
G1 X198.445 Y208.158 E3.82372
G1 X198.505 Y206.933 E3.8243
G1 X198.445 Y205.708 E3.8243
G1 X198.265 Y204.495 E3.82372
G1 X197.967 Y203.303 E3.83121
G1 X197.553 Y202.146 E3.83169
G1 X197.028 Y201.038 E3.82311
G1 X196.399 Y199.986 E3.82191
G1 X195.667 Y198.999 E3.83162
G1 X194.842 Y198.089 E3.83001
G1 X193.928 Y197.262 E3.84344
G1 X192.941 Y196.531 E3.82977
G1 X191.888 Y195.902 E3.82458
G1 X190.779 Y195.377 E3.82593
G1 X189.623 Y194.964 E3.8277
G1 X188.431 Y194.667 E3.83046
G1 X187.218 Y194.488 E3.82326
G1 X185.993 Y194.428 E3.8243
G1 X184.768 Y194.489 E3.82445
G1 X183.554 Y194.669 E3.8268
G1 X182.361 Y194.968 E3.83499
G1 X181.206 Y195.383 E3.82687
G1 X180.098 Y195.908 E3.82311
G1 X179.931 Y196.008 E0.60695
G1 X178.497 Y192.98 E10.44699
G1 X178.343 Y192.545 E1.43888
G1 X177.371 Y189.834 E8.98019
G1 X176.559 Y186.59 E10.42731
G1 X176.066 Y183.274 E10.45339
G1 X175.902 Y179.933 E10.43024
G1 X176.066 Y176.593 E10.42713
G1 X176.558 Y173.279 E10.44677
G1 X177.37 Y170.037 E10.42126
G1 X178.497 Y166.884 E10.44066
G1 X179.927 Y163.862 E10.42474
G1 X181.646 Y160.993 E10.42882
G1 X183.638 Y158.306 Z1.521 E10.42991
G1 X185.886 Y155.825 Z1.543 E10.43964
G1 X188.37 Y153.575 Z1.564 E10.45074
G1 X191.053 Y151.583 Z1.585 E10.4199
G1 X192.827 Y150.521 Z1.598 E6.44715
G1 X192.972 Y150.828 Z1.6 E1.05869
G1 X193.601 Y151.88 Z1.608 E3.82199
G1 X194.333 Y152.867 Z1.616 E3.8317
G1 X195.157 Y153.776 Z1.624 E3.82569
G1 X196.066 Y154.6 Z1.632 E3.82569
G1 X197.053 Y155.332 Z1.639 E3.83168
G1 X198.105 Y155.961 Z1.647 E3.82199
G1 X199.213 Y156.486 Z1.655 E3.82319
G1 X200.37 Y156.9 Z1.663 E3.83177
G1 X201.562 Y157.198 Z1.671 E3.83129
G1 X202.775 Y157.378 Z1.678 E3.82378
G1 X204.001 Y157.438 Z1.686 E3.82749
G1 X205.232 Y157.377 Z1.694 E3.84322
G1 X206.446 Y157.197 Z1.702 E3.82688
G1 X207.637 Y156.898 Z1.71 E3.82902
G1 X208.793 Y156.484 Z1.717 E3.82882
G1 X209.901 Y155.958 Z1.725 E3.82453
G1 X210.953 Y155.328 Z1.733 E3.82359
G1 X211.939 Y154.595 Z1.741 E3.83106
G1 X212.848 Y153.771 Z1.749 E3.82569
G1 X213.672 Y152.86 Z1.756 E3.83029
G1 X214.403 Y151.873 Z1.764 E3.82985
G1 X215.032 Y150.82 Z1.772 E3.82466
G1 X215.556 Y149.712 Z1.78 E3.82185
G1 X215.969 Y148.556 Z1.788 E3.82778
G1 X216.266 Y147.363 Z1.796 E3.83356
G1 X216.4 Y146.453 Z1.801 E2.86815
G1 X216.655 Y146.491 Z1.803 E0.80393
G1 X219.896 Y147.303 Z1.824 E10.41844
G1 X223.049 Y148.43 Z1.846 E10.44088
G1 X226.071 Y149.86 Z1.867 E10.42495
G1 X228.94 Y151.579 Z1.888 E10.42902
G1 X231.627 Y153.571 Z1.909 E10.42991
G1 X234.108 Y155.819 Z1.931 E10.43964
G1 X236.358 Y158.303 Z1.952 E10.45074
G1 X238.35 Y160.986 Z1.973 E10.4199
G1 X238.588 Y161.386 Z1.976 E1.45137
G1 X240.072 Y163.86 Z1.994 E8.99584
G1 X241.501 Y166.882 Z2.016 E10.42364
G1 X242.629 Y170.032 Z2.037 E10.43311
G1 X243.441 Y173.276 Z2.058 E10.42751
G1 X243.934 Y176.592 Z2.08 E10.45362
G1 X243.975 Y177.429 Z2.085 E2.61306
G1 X242.775 Y177.488 Z2.093 E3.74637
G1 X241.562 Y177.668 Z2.1 E3.82378
G1 X240.37 Y177.966 Z2.108 E3.83129
G1 X239.213 Y178.38 Z2.116 E3.83177
G1 X238.105 Y178.905 Z2.124 E3.82319
G1 X237.053 Y179.534 Z2.132 E3.82199
G1 X236.066 Y180.266 Z2.139 E3.83168
G1 X235.157 Y181.09 Z2.147 E3.82569
G1 X234.333 Y181.999 Z2.155 E3.82569
G1 X233.601 Y182.986 Z2.163 E3.8317
G1 X232.972 Y184.038 Z2.171 E3.82199
G1 X232.446 Y185.147 Z2.178 E3.82732
G1 X232.031 Y186.31 Z2.186 E3.85044
G1 X231.734 Y187.502 Z2.194 E3.83054
G1 X231.555 Y188.715 Z2.202 E3.82334
G1 X231.495 Y189.94 Z2.21 E3.82438
G1 X231.556 Y191.165 Z2.217 E3.82451
G1 X231.736 Y192.379 Z2.225 E3.82688
G1 X232.035 Y193.571 Z2.233 E3.83205
G1 X232.449 Y194.726 Z2.241 E3.8259
G1 X232.976 Y195.835 Z2.249 E3.82868
G1 X233.606 Y196.886 Z2.256 E3.8209
G1 X234.338 Y197.873 Z2.264 E3.8317
G1 X235.163 Y198.781 Z2.272 E3.82548
G1 X236.072 Y199.605 Z2.28 E3.82569
G1 X237.061 Y200.336 Z2.288 E3.83486
G1 X237.205 Y200.422 Z2.289 E0.523
G1 X236.362 Y201.56 Z2.298 E4.41607
G1 X234.114 Y204.041 Z2.319 E10.43962
G1 X231.63 Y206.291 Z2.34 E10.45074
G1 X228.947 Y208.283 Z2.362 E10.41992
G1 X228.547 Y208.521 Z2.364 E1.45135
G1 X226.073 Y210.005 Z2.383 E8.99586
G1 X223.051 Y211.434 Z2.404 E10.42362
G1 X219.901 Y212.562 Z2.425 E10.43311
G1 X216.657 Y213.374 Z2.447 E10.42753
G1 X213.341 Y213.867 Z2.468 E10.4536
G1 X210 Y214.031 Z2.489 E10.43045
G1 X206.66 Y213.867 Z2.51 E10.42733
G1 X203.346 Y213.375 Z2.532 E10.44699
G1 X200.104 Y212.563 Z2.553 E10.42146
G1 X197.575 Y211.659 Z2.57 E8.37459
G1 X197.967 Y210.563 Z2.577 E3.62956
G1 X198.265 Y209.371 Z2.585 E3.83129
G1 X198.445 Y208.158 Z2.593 E3.8238
G1 X198.505 Y206.933 Z2.601 E3.82438
G1 X198.445 Y205.708 Z2.609 E3.82438
G1 X198.265 Y204.495 Z2.616 E3.82378
G1 X197.967 Y203.303 Z2.624 E3.83129
G1 X197.553 Y202.146 Z2.632 E3.83177
G1 X197.028 Y201.038 Z2.64 E3.82319
G1 X196.399 Y199.986 Z2.648 E3.82199
G1 X195.667 Y198.999 Z2.655 E3.83168
G1 X194.842 Y198.089 Z2.663 E3.83009
